public/category/hover-1/sparkle-2.svg

<svg width="44" height="71" viewBox="0 0 44 71" fill="none" xmlns="http://www.w3.org/2000/svg">
<path d="M2.39481 33.6924C9.03682 33.1863 14.4053 29.0394 17.7412 23.4303C21.3966 17.2298 22.3532 9.93525 23.2646 2.94891C21.8691 2.87815 20.4736 2.8074 19.0781 2.73664C18.5867 15.4511 28.6395 27.0753 41.2773 28.5904C41.348 27.1949 41.4188 25.7994 41.5252 24.3962C33.2543 24.0988 28.6249 32.0023 26.03 38.7938C22.4326 48.1897 19.6202 57.9378 16.4533 67.427C17.8131 67.5055 19.173 67.5839 20.5608 67.6191C19.9585 61.2217 18.9488 54.838 17.4759 48.5546C16.0695 42.406 14.4512 35.9676 11.6303 30.3492C10.6559 28.434 7.53408 29.5205 8.06838 31.6429C9.61728 37.7606 11.8711 43.6884 13.2774 49.837C14.7195 55.9779 15.7416 62.247 16.3564 68.5297C16.5701 70.7216 19.829 70.6125 20.4639 68.7218C23.322 60.0456 26.1723 51.3337 29.066 42.6497C30.9025 37.1789 34.2006 28.2954 41.2695 28.5548C43.9738 28.6405 44.1612 24.6832 41.5174 24.3606C31.1873 23.1663 22.9005 13.3231 23.2646 2.94891C23.3859 0.236901 19.4363 0.0852174 19.0781 2.73664C17.6682 13.4492 14.9434 28.2514 2.14619 30.6502C0.491768 30.934 0.630536 33.8135 2.39481 33.6924Z" fill="white"/>
</svg>

<svg width="44" height="71" fill="none" xmlns="http://www.w3.org/2000/svg"><path d="M2.395 33.692c6.642-.506 12.01-4.653 15.346-10.262 3.656-6.2 4.612-13.495 5.524-20.481l-4.187-.212c-.491 12.714 9.562 24.338 22.2 25.853.07-1.395.14-2.79.247-4.194-8.27-.297-12.9 7.606-15.495 14.398-3.597 9.396-6.41 19.144-9.577 28.633 1.36.078 2.72.157 4.108.192-.602-6.397-1.612-12.781-3.085-19.064-1.406-6.149-3.025-12.587-5.846-18.206-.974-1.915-4.096-.829-3.562 1.294 1.55 6.118 3.803 12.045 5.21 18.194a142.688 142.688 0 0 1 3.078 18.693c.214 2.192 3.473 2.082 4.108.192 2.858-8.676 5.708-17.388 8.602-26.072 1.837-5.471 5.135-14.355 12.204-14.095 2.704.085 2.891-3.872.247-4.194C31.187 23.166 22.9 13.323 23.265 2.949c.12-2.712-3.829-2.864-4.187-.212-1.41 10.712-4.135 25.514-16.932 27.913-1.654.284-1.515 3.163.249 3.042z" fill="#fff"/></svg>
